icons/airpods.svg

<svg width="24" height="24" viewBox="0 0 24 24" fill="none" xmlns="http://www.w3.org/2000/svg">
<path fill-rule="evenodd" clip-rule="evenodd" d="M8 2.1001C5.38579 2.1001 3.25 4.23588 3.25 6.8501C3.25 8.53251 4.09888 10.0536 5.48501 10.8756L5.95295 16.1168L5.95374 16.1248C6.09271 17.5144 7.32101 18.6001 8.70002 18.6001C10.079 18.6001 11.3073 17.5144 11.4463 16.1248L12.05 10.0875L12.05 10.032C12.0501 9.82988 12.0501 9.62714 12.0081 9.38978C12.4694 8.6483 12.75 7.79879 12.75 6.8501C12.75 4.23588 10.6142 2.1001 8 2.1001ZM10.637 8.74668L10.5897 8.81419L10.5856 8.82005C10.0364 9.60465 9.07405 10.1001 8.00001 10.1001C7.36083 10.1001 6.91843 10.0066 6.58589 9.80704L6.57773 9.80214L6.59546 9.76078C5.48608 9.28533 4.75 8.16658 4.75 6.8501C4.75 5.06431 6.21421 3.6001 8 3.6001C9.78579 3.6001 11.25 5.06431 11.25 6.8501C11.25 7.5451 11.0298 8.17347 10.637 8.74668ZM8.00001 11.6001C8.88067 11.6001 9.73194 11.3655 10.458 10.9334L9.95374 15.9755C9.8927 16.5859 9.32101 17.1001 8.70002 17.1001C8.0802 17.1001 7.50948 16.5878 7.44665 15.9789L7.04941 11.5299C7.36141 11.5814 7.68042 11.6001 8.00001 11.6001ZM13.25 12.8501C13.25 10.7359 14.8858 9.1001 17 9.1001C19.1142 9.1001 20.75 10.7359 20.75 12.8501C20.75 14.2014 20.0415 15.3418 19.0099 16.0074L18.6456 19.8322L18.6442 19.8431C18.5037 20.9674 17.6276 21.9001 16.4 21.9001C15.1724 21.9001 14.2963 20.9674 14.1558 19.8431L14.1542 19.8299L13.75 15.2834V15.2501L13.7499 15.222C13.7496 15.1179 13.7492 14.9638 13.7787 14.7862C13.4222 14.2146 13.25 13.5615 13.25 12.8501ZM15.0491 13.9885L15.2103 14.2142C15.5698 14.7175 16.2427 15.1001 17 15.1001C17.2975 15.1001 17.6805 15.0213 17.9646 14.8793L17.9701 14.8765C18.7364 14.491 19.25 13.7387 19.25 12.8501C19.25 11.5643 18.2858 10.6001 17 10.6001C15.7142 10.6001 14.75 11.5643 14.75 12.8501C14.75 13.3011 14.8536 13.6731 15.0491 13.9885ZM15.6457 19.6688L15.3387 16.2143C15.8391 16.4592 16.4064 16.6001 17 16.6001C17.1423 16.6001 17.2937 16.5904 17.4494 16.5706L17.1546 19.6667C17.092 20.1365 16.7699 20.4001 16.4 20.4001C16.0307 20.4001 15.709 20.1372 15.6457 19.6688Z" fill="black"/>
</svg>

<svg xmlns="http://www.w3.org/2000/svg" fill="none" viewBox="0 0 24 24">
  <path fill="#000" fill-rule="evenodd" d="M8 2.1a4.762 4.762 0 0 0-4.75 4.75c0 1.683.849 3.204 2.235 4.026l.468 5.24v.009c.14 1.39 1.368 2.475 2.747 2.475 1.379 0 2.607-1.086 2.746-2.475l.604-6.037v-.056c0-.202 0-.405-.042-.642a4.75 4.75 0 0 0 .742-2.54A4.762 4.762 0 0 0 8 2.1Zm2.637 6.647-.047.067-.004.006c-.55.785-1.512 1.28-2.586 1.28-.64 0-1.082-.093-1.414-.293l-.008-.005.017-.041C5.486 9.285 4.75 8.167 4.75 6.85A3.262 3.262 0 0 1 8 3.6a3.262 3.262 0 0 1 3.25 3.25c0 .694-.22 1.322-.613 1.896ZM8 11.6c.88 0 1.732-.234 2.458-.667l-.504 5.043c-.061.61-.633 1.124-1.254 1.124-.62 0-1.19-.512-1.253-1.121l-.398-4.45c.312.052.631.071.951.071Zm5.25 1.25c0-2.114 1.636-3.75 3.75-3.75s3.75 1.636 3.75 3.75c0 1.351-.709 2.492-1.74 3.157l-.364 3.825-.002.011c-.14 1.124-1.016 2.057-2.244 2.057-1.228 0-2.104-.933-2.244-2.057l-.002-.013-.404-4.547v-.061c0-.104 0-.258.029-.436-.357-.571-.529-1.224-.529-1.936Zm1.8 1.139.16.225c.36.503 1.033.886 1.79.886.297 0 .68-.079.965-.22l.005-.004c.766-.385 1.28-1.137 1.28-2.026 0-1.286-.964-2.25-2.25-2.25s-2.25.964-2.25 2.25c0 .451.104.823.3 1.139Zm.596 5.68-.307-3.455c.5.245 1.067.386 1.661.386.142 0 .294-.01.45-.03l-.295 3.097c-.063.47-.385.733-.755.733s-.691-.263-.754-.731Z" clip-rule="evenodd"/>
</svg>
